X: 365
T: A St Kilda Melody
R: polka
M: 2/4
K: Eminor
B>G EG|e3 z|E>G BG|AF HE2|d>c Bd|e>B A{A}G|
AB d>e|dB HA2|B>G EG|e3 z|E>G B>G|A>F HE2||
E>E EG|A>A F>A|E>E GG|d>d Bd|e>f ge|d>c B>G|
A>B d>B|e(d/B/) HA2|B>G EG|e3 z|E>G BG|A>F HE2||

